symbols-de/shields/motorway_7x1.svg

<?xml version="1.0" encoding="UTF-8" standalone="no"?>
<svg
   xmlns:dc="http://purl.org/dc/elements/1.1/"
   xmlns:cc="http://creativecommons.org/ns#"
   xmlns:rdf="http://www.w3.org/1999/02/22-rdf-syntax-ns#"
   xmlns:svg="http://www.w3.org/2000/svg"
   xmlns="http://www.w3.org/2000/svg"
   version="1.1"
   id="svg2"
   viewBox="0 0 51.0 15.0"
   height="100%"
   width="100%">
  <metadata
     id="metadata9">
    <rdf:RDF>
      <cc:Work
         rdf:about="">
        <dc:format>image/svg+xml</dc:format>
        <dc:type
           rdf:resource="http://purl.org/dc/dcmitype/StillImage" />
        <dc:title></dc:title>
      </cc:Work>
    </rdf:RDF>
  </metadata>
  <defs
     id="defs7" />
  <path
     style="fill:#365eaf;fill-opacity:1;stroke:#0528a2;stroke-width:1;stroke-miterlimit:4;stroke-dasharray:none;stroke-opacity:1"
     id="path6"
     d="m 0.50006045,7.5000381 0,-4.8363268 q 0,-0.2545459 0.80644835,-0.3818149 L 24.962361,0.51282135 q 0,-0.01276 0.537637,-0.01276 0.537632,0 0.537632,0.01276 L 49.693488,2.2818964 q 0.806452,0.127269 0.806452,0.3818149 l 0,9.6726577 q 0,0.254546 -0.806452,0.381814 L 26.03763,14.487254 q 0,0.01268 -0.537632,0.01268 -0.537637,0 -0.537637,-0.01268 L 1.3065088,12.718183 Q 0.50006045,12.590915 0.50006045,12.336369 Z" />
</svg>

<?xml version="1.0" encoding="UTF-8"?>
<svg xmlns="http://www.w3.org/2000/svg" xmlns:xlink="http://www.w3.org/1999/xlink" width="53pt" height="18pt" viewBox="0 0 53 18" version="1.1">
<g id="surface1">
<path style="fill-rule:nonzero;fill:rgb(21.176471%,36.862745%,68.627451%);fill-opacity:1;stroke-width:1;stroke-linecap:butt;stroke-linejoin:miter;stroke:rgb(1.960784%,15.686275%,63.529412%);stroke-opacity:1;stroke-miterlimit:4;" d="M 0.499926 7.5 L 0.499926 2.66276 C 0.499926 2.49349 0.770563 2.366536 1.308078 2.281901 L 24.962485 0.514323 C 24.962485 0.504557 25.14291 0.501302 25.5 0.501302 C 25.85709 0.501302 26.037515 0.504557 26.037515 0.514323 L 49.691922 2.281901 C 50.229437 2.366536 50.500074 2.49349 50.500074 2.66276 L 50.500074 12.33724 C 50.500074 12.50651 50.229437 12.633464 49.691922 12.718099 L 26.037515 14.485677 C 26.037515 14.495443 25.85709 14.498698 25.5 14.498698 C 25.14291 14.498698 24.962485 14.495443 24.962485 14.485677 L 1.308078 12.718099 C 0.770563 12.633464 0.499926 12.50651 0.499926 12.33724 Z M 0.499926 7.5 " transform="matrix(1.039216,0,0,1.2,0,0)"/>
</g>
</svg>
